!!!OTL: Gaoliang diao
!!!ARE: Asia, China,ÿShaanxi, Ziyang
!! I, 84
!!!SCT: C1410
!!!YEM: Copyright 1995, estate of Helmut Schaffrath.
**kern
*ICvox
*Ivox
*M2/4
*k[b-e-]
*B-:
{8g
16g
16b-
8g
8f
=1
4dd
16dd
16cc
16b-
16g
=2
8b-
16b-
16dd
8cc
8b-
=3
4g
8g
16f
16d}
=4
{8b-
16g
16f
8b-
16g
16f
=5
4dd
16dd
16cc
16b-
16g
=6
8dd
16dd
16cc
8b-
8dd
=7
4g
8g
16f
16d}
=8
{8ff
16dd
16cc
8b-
16b-
16cc
=9
4dd
8dd
8cc
=10
8dd
16dd
16cc
8b-
8cc
=11
4g
8f
8g}
=12
{8g
16g
16b-
8g
8f
=13
4dd
8dd
8cc
=14
8gg
16ff
16gg
8b-
8dd
=15
4cc}
{8dd
8cc
=16
8b-
8dd
4cc
=17
8b-
16g
16b-
4cc
=18
16dd
16dd
16cc
16dd
8f
8a
=19
4g}
{16dd
16dd
16cc
16b-
=20
4g
8.f
16g
=21
4b-
8cc
16cc
16b-
=22
8f
8g
4f
=23
2f]}
==
!!!AGN: Haozi
!!!ONB: ESAC (Essen Associative Code) Database: HUANG
!!!AMT: simple duple
!!!AIN: vox
!!!EED: Helmut Schaffrath
!!!EEV: 1.0
*-
!!!OTL: Luniao ludupi
!!!ARE: Asia, China,ÿHunan, Yiyang
!! I, 558
!!!SCT: C1473
!!!YEM: Copyright 1995, estate of Helmut Schaffrath.
**kern
*ICvox
*Ivox
*M3/4
*k[f#c#]
*D:
{8ee
8b
8b
4.b
=1
8ee
8a
8b
4.dd}
=2
{8ee
8ee
16dd
16ee
8dd
16b
8.b
=3
8dd
8ee
16dd
16ee
4.dd}
=4
{8ee
8ee
16b
8dd
16dd
16b
8.b
=5
8dd
8b
12ee
12b
12dd
4dd}
=6
{8dd
8ee
8dd
4.b
=7
8ee
8b
8ee
4.b}
=8
{8dd
16dd
16ee
16a
16b
16dd
16ee
4dd
=9
8dd
8ee
8dd
4.b}
=10
{16a
8a
16b
8dd
4.b
=11
8dd
8dd
16b
16ee
16dd
16ee
16dd
8.ee}
=12
{16dd
16ee
16dd
16ee
4.dd
8a#
=13
2.b}
==
!!!AGN: Shange, Kuaiban shange
!! +++ 3.letzte Zeile eine 5Tole ver„ndert +++
!!!ONB: ESAC (Essen Associative Code) Database: HUANG
!!!AMT: simple triple
!!!AIN: vox
!!!EED: Helmut Schaffrath
!!!EEV: 1.0
*-
